X: 9120
T: Da Willtrow
R: reel
M: 4/4
K: Dmajor
D D2|D2 FD A2 FD|GA BG A2 FD|GA BG A2 FA|=C2 E2 E2 Dd|D2 FD A2 FD|
GA BG A2 FD|dA FE =CD EG|F2 D2 D2 (3ABc|d2 ed e2 de|
dc BA d2 F2|G2 BG F2 AF|E2 A2 A2 (3ABc|d2 ed e2 ag|
fe df2d2G2|B GF GA Fd2|F2D2|

